img/Group 45.svg

<?xml version="1.0" encoding="UTF-8" standalone="no"?>
<svg
   xmlns:dc="http://purl.org/dc/elements/1.1/"
   xmlns:cc="http://creativecommons.org/ns#"
   xmlns:rdf="http://www.w3.org/1999/02/22-rdf-syntax-ns#"
   xmlns:svg="http://www.w3.org/2000/svg"
   xmlns="http://www.w3.org/2000/svg"
   xmlns:sodipodi="http://sodipodi.sourceforge.net/DTD/sodipodi-0.dtd"
   xmlns:inkscape="http://www.inkscape.org/namespaces/inkscape"
   width="448.63028"
   height="502.98999"
   viewBox="0 0 448.63028 502.98999"
   fill="none"
   version="1.1"
   id="svg42"
   sodipodi:docname="Group 45.svg"
   inkscape:version="1.0.2-2 (e86c870879, 2021-01-15)">
  <metadata
     id="metadata48">
    <rdf:RDF>
      <cc:Work
         rdf:about="">
        <dc:format>image/svg+xml</dc:format>
        <dc:type
           rdf:resource="http://purl.org/dc/dcmitype/StillImage" />
        <dc:title></dc:title>
      </cc:Work>
    </rdf:RDF>
  </metadata>
  <defs
     id="defs46" />
  <sodipodi:namedview
     pagecolor="#ffffff"
     bordercolor="#666666"
     borderopacity="1"
     objecttolerance="10"
     gridtolerance="10"
     guidetolerance="10"
     inkscape:pageopacity="0"
     inkscape:pageshadow="2"
     inkscape:window-width="1920"
     inkscape:window-height="1003"
     id="namedview44"
     showgrid="false"
     inkscape:zoom="0.55033942"
     inkscape:cx="196.62915"
     inkscape:cy="165.27895"
     inkscape:window-x="-9"
     inkscape:window-y="-9"
     inkscape:window-maximized="1"
     inkscape:current-layer="svg42" />
  <g
     style="fill:none"
     id="g110"
     transform="translate(1.5047618e-5)">
    <path
       d="m 423.815,308.15 c 91.478,50.207 -91.182,194.84 -203.66,194.84 -112.479,0 -316.3237,0 -168.0322,-194.84 C 91.0362,257.022 13.7903,0 126.269,0 238.747,0 266.375,184.245 423.815,308.15 Z"
       fill="#6cd4e2"
       id="path96" />
    <path
       d="m 81.95,297 c -0.5333,0 -1,-0.183 -1.4,-0.55 -0.3667,-0.4 -0.55,-0.867 -0.55,-1.4 V 259.9 c 0,-0.567 0.1833,-1.033 0.55,-1.4 0.4,-0.367 0.8667,-0.55 1.4,-0.55 0.8,0 1.3833,0.333 1.75,1 l 16,31.8 15.7,-31.8 c 0.4,-0.667 0.983,-1 1.75,-1 0.533,0 0.983,0.183 1.35,0.55 0.367,0.367 0.55,0.833 0.55,1.4 v 35.15 c 0,0.533 -0.183,1 -0.55,1.4 -0.367,0.367 -0.817,0.55 -1.35,0.55 -0.567,0 -1.05,-0.183 -1.45,-0.55 -0.367,-0.4 -0.55,-0.867 -0.55,-1.4 v -28.3 l -13.9,28.4 c -0.367,0.633 -0.933,0.95 -1.7,0.95 -0.8333,0 -1.4333,-0.4 -1.8,-1.2 L 83.9,267.2 v 27.85 c 0,0.533 -0.2,1 -0.6,1.4 -0.3667,0.367 -0.8167,0.55 -1.35,0.55 z m 59.022,0.25 c -2.7,0 -5.1,-0.583 -7.2,-1.75 -2.066,-1.2 -3.7,-2.85 -4.9,-4.95 -1.166,-2.1 -1.75,-4.5 -1.75,-7.2 0,-2.733 0.55,-5.133 1.65,-7.2 1.134,-2.1 2.684,-3.75 4.65,-4.95 1.967,-1.2 4.234,-1.8 6.8,-1.8 2.534,0 4.734,0.583 6.6,1.75 1.9,1.133 3.367,2.717 4.4,4.75 1.034,2.033 1.55,4.35 1.55,6.95 0,0.533 -0.166,0.967 -0.5,1.3 -0.333,0.3 -0.766,0.45 -1.3,0.45 h -20.2 c 0.2,1.8 0.75,3.4 1.65,4.8 0.9,1.367 2.084,2.45 3.55,3.25 1.467,0.767 3.134,1.15 5,1.15 1.2,0 2.4,-0.2 3.6,-0.6 1.234,-0.433 2.217,-0.967 2.95,-1.6 0.367,-0.3 0.784,-0.45 1.25,-0.45 0.467,-0.033 0.867,0.083 1.2,0.35 0.434,0.4 0.65,0.833 0.65,1.3 0.034,0.467 -0.15,0.867 -0.55,1.2 -1.1,0.933 -2.5,1.717 -4.2,2.35 -1.7,0.6 -3.333,0.9 -4.9,0.9 z m -0.75,-24.4 c -2.566,0 -4.683,0.8 -6.35,2.4 -1.666,1.567 -2.666,3.617 -3,6.15 h 18.3 c -0.266,-2.533 -1.2,-4.583 -2.8,-6.15 -1.566,-1.6 -3.616,-2.4 -6.15,-2.4 z M 161.185,297 c -0.567,0 -1.033,-0.167 -1.4,-0.5 -0.333,-0.367 -0.5,-0.85 -0.5,-1.45 V 271.6 c 0,-0.6 0.167,-1.067 0.5,-1.4 0.367,-0.367 0.833,-0.55 1.4,-0.55 0.567,0 1.017,0.183 1.35,0.55 0.367,0.333 0.55,0.8 0.55,1.4 v 9.9 h 17.65 v -9.9 c 0,-0.6 0.183,-1.067 0.55,-1.4 0.367,-0.367 0.833,-0.55 1.4,-0.55 0.567,0 1.017,0.183 1.35,0.55 0.333,0.333 0.5,0.8 0.5,1.4 v 23.45 c 0,0.6 -0.167,1.083 -0.5,1.45 -0.333,0.333 -0.783,0.5 -1.35,0.5 -0.567,0 -1.033,-0.167 -1.4,-0.5 -0.367,-0.367 -0.55,-0.85 -0.55,-1.45 v -10.1 h -17.65 v 10.1 c 0,0.6 -0.183,1.083 -0.55,1.45 -0.333,0.333 -0.783,0.5 -1.35,0.5 z m 44.729,0.25 c -2.7,0 -5.1,-0.583 -7.2,-1.75 -2.067,-1.2 -3.7,-2.85 -4.9,-4.95 -1.167,-2.1 -1.75,-4.5 -1.75,-7.2 0,-2.733 0.55,-5.133 1.65,-7.2 1.133,-2.1 2.683,-3.75 4.65,-4.95 1.966,-1.2 4.233,-1.8 6.8,-1.8 2.533,0 4.733,0.583 6.6,1.75 1.9,1.133 3.366,2.717 4.4,4.75 1.033,2.033 1.55,4.35 1.55,6.95 0,0.533 -0.167,0.967 -0.5,1.3 -0.334,0.3 -0.767,0.45 -1.3,0.45 h -20.2 c 0.2,1.8 0.75,3.4 1.65,4.8 0.9,1.367 2.083,2.45 3.55,3.25 1.466,0.767 3.133,1.15 5,1.15 1.2,0 2.4,-0.2 3.6,-0.6 1.233,-0.433 2.216,-0.967 2.95,-1.6 0.366,-0.3 0.783,-0.45 1.25,-0.45 0.466,-0.033 0.866,0.083 1.2,0.35 0.433,0.4 0.65,0.833 0.65,1.3 0.033,0.467 -0.15,0.867 -0.55,1.2 -1.1,0.933 -2.5,1.717 -4.2,2.35 -1.7,0.6 -3.334,0.9 -4.9,0.9 z m -0.75,-24.4 c -2.567,0 -4.684,0.8 -6.35,2.4 -1.667,1.567 -2.667,3.617 -3,6.15 h 18.3 c -0.267,-2.533 -1.2,-4.583 -2.8,-6.15 -1.567,-1.6 -3.617,-2.4 -6.15,-2.4 z m 30.136,24.4 c -2.633,0 -4.967,-0.583 -7,-1.75 -2.033,-1.2 -3.633,-2.85 -4.8,-4.95 -1.133,-2.1 -1.7,-4.5 -1.7,-7.2 0,-2.733 0.6,-5.15 1.8,-7.25 1.2,-2.1 2.85,-3.733 4.95,-4.9 2.1,-1.2 4.483,-1.8 7.15,-1.8 2.7,0 5.083,0.6 7.15,1.8 2.1,1.167 3.733,2.8 4.9,4.9 1.2,2.1 1.817,4.517 1.85,7.25 v 10.2 c 0,2.7 -0.6,5.117 -1.8,7.25 -1.2,2.167 -2.833,3.867 -4.9,5.1 -2.067,1.267 -4.433,1.9 -7.1,1.9 -2.633,0 -4.95,-0.5 -6.95,-1.5 -2,-0.967 -3.65,-2.3 -4.95,-4 -0.367,-0.4 -0.533,-0.833 -0.5,-1.3 0.067,-0.467 0.317,-0.85 0.75,-1.15 0.433,-0.3 0.917,-0.4 1.45,-0.3 0.533,0.1 0.95,0.35 1.25,0.75 0.967,1.2 2.2,2.167 3.7,2.9 1.533,0.733 3.3,1.1 5.3,1.1 1.867,0 3.55,-0.45 5.05,-1.35 1.5,-0.9 2.683,-2.167 3.55,-3.8 0.9,-1.633 1.35,-3.55 1.35,-5.75 v -2.3 c -1,1.9 -2.417,3.4 -4.25,4.5 -1.8,1.1 -3.883,1.65 -6.25,1.65 z m 0.4,-3.5 c 1.967,0 3.7,-0.433 5.2,-1.3 1.533,-0.9 2.733,-2.133 3.6,-3.7 0.867,-1.567 1.3,-3.367 1.3,-5.4 0,-2.033 -0.433,-3.833 -1.3,-5.4 -0.867,-1.6 -2.067,-2.833 -3.6,-3.7 -1.5,-0.9 -3.233,-1.35 -5.2,-1.35 -1.967,0 -3.717,0.45 -5.25,1.35 -1.533,0.867 -2.733,2.1 -3.6,3.7 -0.867,1.567 -1.3,3.367 -1.3,5.4 0,2.033 0.433,3.833 1.3,5.4 0.867,1.567 2.067,2.8 3.6,3.7 1.533,0.867 3.283,1.3 5.25,1.3 z m 35.024,3.25 c -0.566,0 -1.033,-0.167 -1.4,-0.5 -0.333,-0.367 -0.5,-0.833 -0.5,-1.4 V 285 h -4.5 l -8.35,11.45 c -0.3,0.4 -0.733,0.583 -1.3,0.55 -0.533,0 -0.966,-0.167 -1.3,-0.5 -0.366,-0.367 -0.55,-0.767 -0.55,-1.2 0.034,-0.433 0.184,-0.85 0.45,-1.25 l 7.95,-10.9 -7.05,-10.6 c -0.266,-0.433 -0.4,-0.867 -0.4,-1.3 0,-0.433 0.2,-0.833 0.6,-1.2 0.334,-0.3 0.75,-0.433 1.25,-0.4 0.5,0 0.9,0.2 1.2,0.6 l 7.45,11.35 h 4.55 v -10 c 0,-0.6 0.167,-1.067 0.5,-1.4 0.367,-0.367 0.834,-0.55 1.4,-0.55 0.567,0 1.034,0.183 1.4,0.55 0.367,0.333 0.55,0.8 0.55,1.4 v 10 h 4.45 l 7.5,-11.35 c 0.3,-0.4 0.7,-0.6 1.2,-0.6 0.5,-0.033 0.917,0.1 1.25,0.4 0.4,0.367 0.6,0.767 0.6,1.2 0,0.433 -0.133,0.867 -0.4,1.3 l -7.05,10.6 7.95,10.9 c 0.267,0.4 0.417,0.817 0.45,1.25 0.034,0.433 -0.15,0.833 -0.55,1.2 -0.333,0.333 -0.783,0.5 -1.35,0.5 -0.533,0.033 -0.933,-0.15 -1.2,-0.55 L 277.174,285 h -4.5 v 10.1 c 0,0.567 -0.183,1.033 -0.55,1.4 -0.366,0.333 -0.833,0.5 -1.4,0.5 z m 34.067,0.25 c -2.7,0 -5.1,-0.583 -7.2,-1.75 -2.067,-1.2 -3.7,-2.85 -4.9,-4.95 -1.167,-2.1 -1.75,-4.5 -1.75,-7.2 0,-2.733 0.55,-5.133 1.65,-7.2 1.133,-2.1 2.683,-3.75 4.65,-4.95 1.966,-1.2 4.233,-1.8 6.8,-1.8 2.533,0 4.733,0.583 6.6,1.75 1.9,1.133 3.366,2.717 4.4,4.75 1.033,2.033 1.55,4.35 1.55,6.95 0,0.533 -0.167,0.967 -0.5,1.3 -0.334,0.3 -0.767,0.45 -1.3,0.45 h -20.2 c 0.2,1.8 0.75,3.4 1.65,4.8 0.9,1.367 2.083,2.45 3.55,3.25 1.466,0.767 3.133,1.15 5,1.15 1.2,0 2.4,-0.2 3.6,-0.6 1.233,-0.433 2.216,-0.967 2.95,-1.6 0.366,-0.3 0.783,-0.45 1.25,-0.45 0.466,-0.033 0.866,0.083 1.2,0.35 0.433,0.4 0.65,0.833 0.65,1.3 0.033,0.467 -0.15,0.867 -0.55,1.2 -1.1,0.933 -2.5,1.717 -4.2,2.35 -1.7,0.6 -3.334,0.9 -4.9,0.9 z m -0.75,-24.4 c -2.567,0 -4.684,0.8 -6.35,2.4 -1.667,1.567 -2.667,3.617 -3,6.15 h 18.3 c -0.267,-2.533 -1.2,-4.583 -2.8,-6.15 -1.567,-1.6 -3.617,-2.4 -6.15,-2.4 z m 21.013,35.85 c -0.6,0 -1.084,-0.183 -1.45,-0.55 -0.334,-0.333 -0.5,-0.8 -0.5,-1.4 v -23.6 c 0.033,-2.6 0.65,-4.933 1.85,-7 1.233,-2.1 2.883,-3.75 4.95,-4.95 2.1,-1.2 4.45,-1.8 7.05,-1.8 2.666,0 5.05,0.617 7.15,1.85 2.1,1.2 3.75,2.85 4.95,4.95 1.233,2.1 1.85,4.483 1.85,7.15 0,2.633 -0.6,5 -1.8,7.1 -1.167,2.1 -2.767,3.767 -4.8,5 -2.034,1.2 -4.334,1.8 -6.9,1.8 -2.234,0 -4.267,-0.467 -6.1,-1.4 -1.8,-0.967 -3.25,-2.233 -4.35,-3.8 v 14.7 c 0,0.6 -0.184,1.067 -0.55,1.4 -0.334,0.367 -0.784,0.55 -1.35,0.55 z m 11.9,-14.95 c 1.933,0 3.666,-0.45 5.2,-1.35 1.533,-0.9 2.733,-2.133 3.6,-3.7 0.9,-1.6 1.35,-3.383 1.35,-5.35 0,-2 -0.45,-3.783 -1.35,-5.35 -0.867,-1.567 -2.067,-2.8 -3.6,-3.7 -1.534,-0.933 -3.267,-1.4 -5.2,-1.4 -1.9,0 -3.617,0.467 -5.15,1.4 -1.534,0.9 -2.734,2.133 -3.6,3.7 -0.867,1.567 -1.3,3.35 -1.3,5.35 0,1.967 0.433,3.75 1.3,5.35 0.866,1.567 2.066,2.8 3.6,3.7 1.533,0.9 3.25,1.35 5.15,1.35 z"
       fill="#ffffff"
       id="path98" />
  </g>
</svg>

<svg width="449" height="503" viewBox="0 0 449 503" fill="none" xmlns="http://www.w3.org/2000/svg">
<path d="M423.815 308.15C515.293 358.357 332.633 502.99 220.155 502.99C107.676 502.99 -96.1687 502.99 52.1228 308.15C91.0362 257.022 13.7903 0 126.269 0C238.747 0 266.375 184.245 423.815 308.15Z" fill="#6CD4E2"/>
<path d="M81.95 297C81.4167 297 80.95 296.817 80.55 296.45C80.1833 296.05 80 295.583 80 295.05V259.9C80 259.333 80.1833 258.867 80.55 258.5C80.95 258.133 81.4167 257.95 81.95 257.95C82.75 257.95 83.3333 258.283 83.7 258.95L99.7 290.75L115.4 258.95C115.8 258.283 116.383 257.95 117.15 257.95C117.683 257.95 118.133 258.133 118.5 258.5C118.867 258.867 119.05 259.333 119.05 259.9V295.05C119.05 295.583 118.867 296.05 118.5 296.45C118.133 296.817 117.683 297 117.15 297C116.583 297 116.1 296.817 115.7 296.45C115.333 296.05 115.15 295.583 115.15 295.05V266.75L101.25 295.15C100.883 295.783 100.317 296.1 99.55 296.1C98.7167 296.1 98.1167 295.7 97.75 294.9L83.9 267.2V295.05C83.9 295.583 83.7 296.05 83.3 296.45C82.9333 296.817 82.4833 297 81.95 297ZM140.972 297.25C138.272 297.25 135.872 296.667 133.772 295.5C131.706 294.3 130.072 292.65 128.872 290.55C127.706 288.45 127.122 286.05 127.122 283.35C127.122 280.617 127.672 278.217 128.772 276.15C129.906 274.05 131.456 272.4 133.422 271.2C135.389 270 137.656 269.4 140.222 269.4C142.756 269.4 144.956 269.983 146.822 271.15C148.722 272.283 150.189 273.867 151.222 275.9C152.256 277.933 152.772 280.25 152.772 282.85C152.772 283.383 152.606 283.817 152.272 284.15C151.939 284.45 151.506 284.6 150.972 284.6H130.772C130.972 286.4 131.522 288 132.422 289.4C133.322 290.767 134.506 291.85 135.972 292.65C137.439 293.417 139.106 293.8 140.972 293.8C142.172 293.8 143.372 293.6 144.572 293.2C145.806 292.767 146.789 292.233 147.522 291.6C147.889 291.3 148.306 291.15 148.772 291.15C149.239 291.117 149.639 291.233 149.972 291.5C150.406 291.9 150.622 292.333 150.622 292.8C150.656 293.267 150.472 293.667 150.072 294C148.972 294.933 147.572 295.717 145.872 296.35C144.172 296.95 142.539 297.25 140.972 297.25ZM140.222 272.85C137.656 272.85 135.539 273.65 133.872 275.25C132.206 276.817 131.206 278.867 130.872 281.4H149.172C148.906 278.867 147.972 276.817 146.372 275.25C144.806 273.65 142.756 272.85 140.222 272.85ZM161.185 297C160.618 297 160.152 296.833 159.785 296.5C159.452 296.133 159.285 295.65 159.285 295.05V271.6C159.285 271 159.452 270.533 159.785 270.2C160.152 269.833 160.618 269.65 161.185 269.65C161.752 269.65 162.202 269.833 162.535 270.2C162.902 270.533 163.085 271 163.085 271.6V281.5H180.735V271.6C180.735 271 180.918 270.533 181.285 270.2C181.652 269.833 182.118 269.65 182.685 269.65C183.252 269.65 183.702 269.833 184.035 270.2C184.368 270.533 184.535 271 184.535 271.6V295.05C184.535 295.65 184.368 296.133 184.035 296.5C183.702 296.833 183.252 297 182.685 297C182.118 297 181.652 296.833 181.285 296.5C180.918 296.133 180.735 295.65 180.735 295.05V284.95H163.085V295.05C163.085 295.65 162.902 296.133 162.535 296.5C162.202 296.833 161.752 297 161.185 297ZM205.914 297.25C203.214 297.25 200.814 296.667 198.714 295.5C196.647 294.3 195.014 292.65 193.814 290.55C192.647 288.45 192.064 286.05 192.064 283.35C192.064 280.617 192.614 278.217 193.714 276.15C194.847 274.05 196.397 272.4 198.364 271.2C200.33 270 202.597 269.4 205.164 269.4C207.697 269.4 209.897 269.983 211.764 271.15C213.664 272.283 215.13 273.867 216.164 275.9C217.197 277.933 217.714 280.25 217.714 282.85C217.714 283.383 217.547 283.817 217.214 284.15C216.88 284.45 216.447 284.6 215.914 284.6H195.714C195.914 286.4 196.464 288 197.364 289.4C198.264 290.767 199.447 291.85 200.914 292.65C202.38 293.417 204.047 293.8 205.914 293.8C207.114 293.8 208.314 293.6 209.514 293.2C210.747 292.767 211.73 292.233 212.464 291.6C212.83 291.3 213.247 291.15 213.714 291.15C214.18 291.117 214.58 291.233 214.914 291.5C215.347 291.9 215.564 292.333 215.564 292.8C215.597 293.267 215.414 293.667 215.014 294C213.914 294.933 212.514 295.717 210.814 296.35C209.114 296.95 207.48 297.25 205.914 297.25ZM205.164 272.85C202.597 272.85 200.48 273.65 198.814 275.25C197.147 276.817 196.147 278.867 195.814 281.4H214.114C213.847 278.867 212.914 276.817 211.314 275.25C209.747 273.65 207.697 272.85 205.164 272.85ZM235.3 297.25C232.667 297.25 230.333 296.667 228.3 295.5C226.267 294.3 224.667 292.65 223.5 290.55C222.367 288.45 221.8 286.05 221.8 283.35C221.8 280.617 222.4 278.2 223.6 276.1C224.8 274 226.45 272.367 228.55 271.2C230.65 270 233.033 269.4 235.7 269.4C238.4 269.4 240.783 270 242.85 271.2C244.95 272.367 246.583 274 247.75 276.1C248.95 278.2 249.567 280.617 249.6 283.35V293.55C249.6 296.25 249 298.667 247.8 300.8C246.6 302.967 244.967 304.667 242.9 305.9C240.833 307.167 238.467 307.8 235.8 307.8C233.167 307.8 230.85 307.3 228.85 306.3C226.85 305.333 225.2 304 223.9 302.3C223.533 301.9 223.367 301.467 223.4 301C223.467 300.533 223.717 300.15 224.15 299.85C224.583 299.55 225.067 299.45 225.6 299.55C226.133 299.65 226.55 299.9 226.85 300.3C227.817 301.5 229.05 302.467 230.55 303.2C232.083 303.933 233.85 304.3 235.85 304.3C237.717 304.3 239.4 303.85 240.9 302.95C242.4 302.05 243.583 300.783 244.45 299.15C245.35 297.517 245.8 295.6 245.8 293.4V291.1C244.8 293 243.383 294.5 241.55 295.6C239.75 296.7 237.667 297.25 235.3 297.25ZM235.7 293.75C237.667 293.75 239.4 293.317 240.9 292.45C242.433 291.55 243.633 290.317 244.5 288.75C245.367 287.183 245.8 285.383 245.8 283.35C245.8 281.317 245.367 279.517 244.5 277.95C243.633 276.35 242.433 275.117 240.9 274.25C239.4 273.35 237.667 272.9 235.7 272.9C233.733 272.9 231.983 273.35 230.45 274.25C228.917 275.117 227.717 276.35 226.85 277.95C225.983 279.517 225.55 281.317 225.55 283.35C225.55 285.383 225.983 287.183 226.85 288.75C227.717 290.317 228.917 291.55 230.45 292.45C231.983 293.317 233.733 293.75 235.7 293.75ZM270.724 297C270.158 297 269.691 296.833 269.324 296.5C268.991 296.133 268.824 295.667 268.824 295.1V285H264.324L255.974 296.45C255.674 296.85 255.241 297.033 254.674 297C254.141 297 253.708 296.833 253.374 296.5C253.008 296.133 252.824 295.733 252.824 295.3C252.858 294.867 253.008 294.45 253.274 294.05L261.224 283.15L254.174 272.55C253.908 272.117 253.774 271.683 253.774 271.25C253.774 270.817 253.974 270.417 254.374 270.05C254.708 269.75 255.124 269.617 255.624 269.65C256.124 269.65 256.524 269.85 256.824 270.25L264.274 281.6H268.824V271.6C268.824 271 268.991 270.533 269.324 270.2C269.691 269.833 270.158 269.65 270.724 269.65C271.291 269.65 271.758 269.833 272.124 270.2C272.491 270.533 272.674 271 272.674 271.6V281.6H277.124L284.624 270.25C284.924 269.85 285.324 269.65 285.824 269.65C286.324 269.617 286.741 269.75 287.074 270.05C287.474 270.417 287.674 270.817 287.674 271.25C287.674 271.683 287.541 272.117 287.274 272.55L280.224 283.15L288.174 294.05C288.441 294.45 288.591 294.867 288.624 295.3C288.658 295.733 288.474 296.133 288.074 296.5C287.741 296.833 287.291 297 286.724 297C286.191 297.033 285.791 296.85 285.524 296.45L277.174 285H272.674V295.1C272.674 295.667 272.491 296.133 272.124 296.5C271.758 296.833 271.291 297 270.724 297ZM304.791 297.25C302.091 297.25 299.691 296.667 297.591 295.5C295.524 294.3 293.891 292.65 292.691 290.55C291.524 288.45 290.941 286.05 290.941 283.35C290.941 280.617 291.491 278.217 292.591 276.15C293.724 274.05 295.274 272.4 297.241 271.2C299.207 270 301.474 269.4 304.041 269.4C306.574 269.4 308.774 269.983 310.641 271.15C312.541 272.283 314.007 273.867 315.041 275.9C316.074 277.933 316.591 280.25 316.591 282.85C316.591 283.383 316.424 283.817 316.091 284.15C315.757 284.45 315.324 284.6 314.791 284.6H294.591C294.791 286.4 295.341 288 296.241 289.4C297.141 290.767 298.324 291.85 299.791 292.65C301.257 293.417 302.924 293.8 304.791 293.8C305.991 293.8 307.191 293.6 308.391 293.2C309.624 292.767 310.607 292.233 311.341 291.6C311.707 291.3 312.124 291.15 312.591 291.15C313.057 291.117 313.457 291.233 313.791 291.5C314.224 291.9 314.441 292.333 314.441 292.8C314.474 293.267 314.291 293.667 313.891 294C312.791 294.933 311.391 295.717 309.691 296.35C307.991 296.95 306.357 297.25 304.791 297.25ZM304.041 272.85C301.474 272.85 299.357 273.65 297.691 275.25C296.024 276.817 295.024 278.867 294.691 281.4H312.991C312.724 278.867 311.791 276.817 310.191 275.25C308.624 273.65 306.574 272.85 304.041 272.85ZM325.054 308.7C324.454 308.7 323.97 308.517 323.604 308.15C323.27 307.817 323.104 307.35 323.104 306.75V283.15C323.137 280.55 323.754 278.217 324.954 276.15C326.187 274.05 327.837 272.4 329.904 271.2C332.004 270 334.354 269.4 336.954 269.4C339.62 269.4 342.004 270.017 344.104 271.25C346.204 272.45 347.854 274.1 349.054 276.2C350.287 278.3 350.904 280.683 350.904 283.35C350.904 285.983 350.304 288.35 349.104 290.45C347.937 292.55 346.337 294.217 344.304 295.45C342.27 296.65 339.97 297.25 337.404 297.25C335.17 297.25 333.137 296.783 331.304 295.85C329.504 294.883 328.054 293.617 326.954 292.05V306.75C326.954 307.35 326.77 307.817 326.404 308.15C326.07 308.517 325.62 308.7 325.054 308.7ZM336.954 293.75C338.887 293.75 340.62 293.3 342.154 292.4C343.687 291.5 344.887 290.267 345.754 288.7C346.654 287.1 347.104 285.317 347.104 283.35C347.104 281.35 346.654 279.567 345.754 278C344.887 276.433 343.687 275.2 342.154 274.3C340.62 273.367 338.887 272.9 336.954 272.9C335.054 272.9 333.337 273.367 331.804 274.3C330.27 275.2 329.07 276.433 328.204 278C327.337 279.567 326.904 281.35 326.904 283.35C326.904 285.317 327.337 287.1 328.204 288.7C329.07 290.267 330.27 291.5 331.804 292.4C333.337 293.3 335.054 293.75 336.954 293.75Z" fill="white"/>
</svg>
